icons/glyphs/glyph-touchpad.svg

<?xml version="1.0" encoding="UTF-8" standalone="no"?><svg height="16" viewBox="0 0 4.2333333 4.2333333" width="16" xmlns="http://www.w3.org/2000/svg"><sodipodi:namedview/><metadata><rdf:RDF><cc:Work><dc:format>image/svg+xml</dc:format><dc:type/><dc:title/></cc:Work></rdf:RDF></metadata><path d="m .39247796.0000001c-.21741038 0-.39247796.17506733-.39247796.39247797v2.09701833h4.2333333v-2.09701833c0-.21741064-.1750672-.39247797-.3924779-.39247797zm-.39247796 2.8225151v1.0183401c0 .2174103.17506758.3924779.39247796.3924779h1.55767894v-1.410818zm2.283177 0v1.410818h1.5576784c.2174107 0 .3924779-.1750676.3924779-.3924779v-1.0183401z" fill="#d0d0d0" stroke-linecap="square" stroke-width=".310068"/></svg>

<?xml version="1.0" encoding="UTF-8" standalone="no"?>
<!-- Created with Inkscape (http://www.inkscape.org/) -->

<svg
     xmlns:dc="http://purl.org/dc/elements/1.1/"
     xmlns:cc="http://creativecommons.org/ns#"
     xmlns:rdf="http://www.w3.org/1999/02/22-rdf-syntax-ns#"
     xmlns:svg="http://www.w3.org/2000/svg"
     xmlns="http://www.w3.org/2000/svg"
     xmlns:sodipodi="http://sodipodi.sourceforge.net/DTD/sodipodi-0.dtd"
     xmlns:inkscape="http://www.inkscape.org/namespaces/inkscape"
     width="16"
     height="16"
     viewBox="0 0 4.2333333 4.2333333"
     version="1.1"
     id="svg8"
     inkscape:version="0.92+devel (c0065a33f9, 2017-07-22, custom)"
     sodipodi:docname="glyph-touchpad.svg">
    <defs
         id="defs2" />
    <sodipodi:namedview
         id="base"
         pagecolor="#002466"
         bordercolor="#ffffff"
         borderopacity="0.38039216"
         inkscape:pageopacity="1"
         inkscape:pageshadow="2"
         inkscape:zoom="27.375"
         inkscape:cx="8"
         inkscape:cy="8"
         inkscape:document-units="px"
         inkscape:current-layer="svg8"
         inkscape:document-rotation="0"
         showgrid="false"
         inkscape:showpageshadow="false"
         borderlayer="true"
         inkscape:window-width="1920"
         inkscape:window-height="1051"
         inkscape:window-x="0"
         inkscape:window-y="0"
         inkscape:window-maximized="1"
         units="px" />
    <metadata
         id="metadata5">
        <rdf:RDF>
            <cc:Work
                 rdf:about="">
                <dc:format>image/svg+xml</dc:format>
                <dc:type
                     rdf:resource="http://purl.org/dc/dcmitype/StillImage" />
                <dc:title></dc:title>
            </cc:Work>
        </rdf:RDF>
    </metadata>
    <path
         inkscape:label="#"
         sodipodi:nodetypes="ssccssscsscccccsscc"
         inkscape:connector-curvature="0"
         id="rect8807"
         d="M 0.39247796,1e-7 C 0.17506758,1e-7 0,0.17506743 0,0.39247807 V 2.4894964 H 4.2333333 V 0.39247807 C 4.2333333,0.17506743 4.0582661,1e-7 3.8408554,1e-7 Z M 0,2.8225152 V 3.8408553 C 0,4.0582656 0.17506758,4.2333332 0.39247796,4.2333332 H 1.9501569 v -1.410818 z m 2.283177,0 v 1.410818 h 1.5576784 c 0.2174107,0 0.3924779,-0.1750676 0.3924779,-0.3924779 V 2.8225152 Z"
         style="opacity:1;fill:#d0d0d0;stroke-width:0.31006768;stroke-linecap:square" />
</svg>
